src/img/cash.svg

<svg width="100" height="100" viewBox="0 0 100 100" fill="none" xmlns="http://www.w3.org/2000/svg">
<circle cx="50" cy="50" r="47.5" fill="#3E9CDC" stroke="#286690" stroke-width="5"/>
<path d="M45.7287 54.5357V52.6071H48.3002V46.8214H48.26C47.9386 47.3237 47.6372 47.5446 47.1551 47.9665L45.6082 46.3594L48.5814 43.6071H50.8716V52.6071H53.443V54.5357H45.7287ZM56.0145 49.3928C56.0145 45.7366 53.8046 41.0357 49.5859 41.0357C45.3671 41.0357 43.1573 45.7366 43.1573 49.3928C43.1573 53.0491 45.3671 57.75 49.5859 57.75C53.8046 57.75 56.0145 53.0491 56.0145 49.3928ZM66.3002 54.5357C63.4676 54.5357 61.1573 56.846 61.1573 59.6786H38.0145C38.0145 56.846 35.7042 54.5357 32.8716 54.5357V44.25C35.7042 44.25 38.0145 41.9397 38.0145 39.1071H61.1573C61.1573 41.9397 63.4676 44.25 66.3002 44.25V54.5357ZM68.8716 37.8214C68.8716 37.1183 68.289 36.5357 67.5859 36.5357H31.5859C30.8828 36.5357 30.3002 37.1183 30.3002 37.8214V60.9643C30.3002 61.6674 30.8828 62.25 31.5859 62.25H67.5859C68.289 62.25 68.8716 61.6674 68.8716 60.9643V37.8214Z" fill="white"/>
</svg>

<svg width="100" height="100" fill="none" xmlns="http://www.w3.org/2000/svg"><circle cx="50" cy="50" r="47.5" fill="#3E9CDC" stroke="#286690" stroke-width="5"/><path d="M45.729 54.536v-1.929H48.3v-5.786h-.04c-.321.503-.623.724-1.105 1.146l-1.547-1.608 2.973-2.752h2.29v9h2.572v1.929h-7.714zm10.285-5.143c0-3.656-2.21-8.357-6.428-8.357-4.219 0-6.429 4.7-6.429 8.357 0 3.656 2.21 8.357 6.429 8.357s6.428-4.7 6.428-8.357zM66.3 54.536a5.153 5.153 0 00-5.143 5.143H38.015a5.153 5.153 0 00-5.143-5.143V44.25a5.153 5.153 0 005.142-5.143h23.143A5.153 5.153 0 0066.3 44.25v10.286zm2.572-16.715c0-.703-.583-1.285-1.286-1.285h-36c-.703 0-1.286.582-1.286 1.285v23.143c0 .703.583 1.286 1.286 1.286h36c.703 0 1.286-.583 1.286-1.286V37.821z" fill="#fff"/></svg>
